/* XPM */
static char *image[] = {
"64 64 13 1",
"  c None",
"0 c #5b5b5b",
"1 c #6f6f6f",
"2 c #797979",
"3 c #d3d3d3",
"4 c #090909",
"5 c #858585",
"6 c #c5c5c5",
"7 c #232323",
"8 c #181818",
"9 c #404040",
": c #ffffff",
"; c #000000",
"                                                                ",
"                         ;;;;;;;;;;;;;;                         ",
"                      ;;;;;;;;;;;;;;;;;;;;;                     ",
"                   ;;;;;;;;;;;;;;;;;;;;;;;;;;                   ",
"                 ;;;;;;;;;;;;;;;;;;;;;;;;;;;;;;                 ",
"                ;;;;;;;;;;;;;;;;;;;;;;;;;;;;;;;;;               ",
"              ;;;;;;;;;;;;;;;;;;;;;;;;;;;;;;;;;;;;;             ",
"             ;;;;;;;;;;;;;;;;;;;;;;;;;;;;;;;;;;;;;;;            ",
"            ;;;;;;;;;;;;;;;;;;;;;;;;;;;;;;;;;;;;;;;;;           ",
"          ;;;;;;;;;;;;;;;;;;;;;;;;;;;;;;;;;;;;;;;;;;;;          ",
"         ;;;;;;;;;;;;;;;;;;;;;;;;;;;;;;;;;;;;;;;;;;;;;;         ",
"         ;;;;;;;;;;;;;;;;;;;;;;;;;;;;;;;;;;;;;;;;;;;;;;;        ",
"        ;;;;;;;;;;;;;;;;;;;;;;;;;;;;;;;;;;;;:::::::::::::;;;;;;;",
"       ;;;;;;;;;;;;;;;;;;;;;;;;;;;;;;;;;;;;;::::::::::::::;;;;;;",
"      ;;;;;;;;;;;;;;;;;;;;;;;;;;;;;;;;;;;;;;::::::::::::::9;;;;;",
"      ;;;;;;;;;;;;;;;;;;;;;;;;;;;;;;;;;;;;;;:::::::::::::::;;;;;",
"     ;;;;;;;;;;;;;;;;;;;;;;;;;;;;;;;;;;;;;;;::::::::::::::::;;;;",
"    ;;;;;;;;;;;;;;;;;;;;;;;;;;;;;;;;;;;;;;;;::::::::::::::::;;;;",
"    ;;;;;;;;;;;;;;;;;;;;;;;;;;;;;;;;;;;;;;;;:::::::::::::::::;;;",
"   ;;;;;;;;;;;;;;;;;;;;;;;;;;;;;;;;;;;;;;;;;:::::::::::::::::;;;",
"   ;;;;;;;;;;;;;;;;;;;;;;;;;;;;;;;;;;;;;;;;;::::::::::::::::::;;",
"   ;;;;;;;;;;;;;;;;;;;;;;;;;;;;;;;;;;;;;;;;;::::::::::::::::::;;",
"  ;;;;;;;;;;;;;;;;;;;;;;;;;;;;;;;;;;;;;;;;;;::::::::::::::::::8;",
"  ;;;;;;;;;;;;;;;;;;;;;;;;;;;;;;;;;;;;;;;;;;:::::::::::::::::::;",
"  ;;;;;;;;;;;;;;;;;;;;;;;;;;;;;;;;;;;;;;;;;;:::::::::::::::::::;",
" ;;;;;;;;;;;;;;;;;;;;;;;;;;;;;;;;;;;;;;;;;;;:::::::::::::::::::;",
" ;;;;;;;;;;;;;;;;;;;;;;;;;;;;;;;;;;;;;;;;;;;:::::::::::::::::::7",
" ;;;;;;;;;;;;;;;;;;;;;;;;;;;;;;;;;;;;;;;;;;;:::::::::::::::::::6",
" ;;;;;;;;;;;;;;;;;;;;;;;;;;;;;;;;;;;;;;;;;;;::::::::::::::::::::",
" ;;;;;;;;;;;;;;;;;;;;;;;;;;;;;;;;;;;;;;;;;;;::::::::::::::::::::",
" ;;;;;;;;;;;;;;;;;;;;;;;;;;;;;;;;;;;;;;;;;;;::::::::::::::::::::",
" ;;;;;;;;;;;;;;;;;;;;;;;;;;;;;;;;;;;;;;;;;;;::::::::::::::::::::",
" ;;;;;;;;;;;;;;;;;;;;;;;;;;;;;;;;;;;;;;;;;;;::::::::::::::::::::",
" ;;;;;;;;;;;;;;;;;;;;;;;;;;;;;;;;;;;;;;;;;;;::::::::::::::::::::",
" ;;;;;;;;;;;;;;;;;;;;;;:::::::::::::::::::::::::::::::::::::::::",
" ;;;;;;;;;;;;;;;;;;;;;;:::::::::::::::::::::::::::::::::::::::::",
" ;;;;;;;;;;;;;;;;;;;;;;:::::::::::::::::::::::::::::::::::::::::",
" ;;;;;;;;;;;;;;;;;;;;;;::::::::::::::::::::::::::::::::::::::::5",
" ;;;;;;;;;;;;;;;;;;;;;;::::::::::::::::::::::::::::::::::::::::4",
"  ;;;;;;;;;;;;;;;;;;;;;::::::::::::::::::::::::::::::::::::::::;",
"  ;;;;;;;;;;;;;;;;;;;;;::::::::::::::::::::::::::::::::::::::::;",
"  ;;;;;;;;;;;;;;;;;;;;;:::::::::::::::::::::::::::::::::::::::3;",
"  ;;;;;;;;;;;;;;;;;;;;;:::::::::::::::::::::::::::::::::::::::;;",
"   ;;;;;;;;;;;;;;;;;;;;:::::::::::::::::::::::::::::::::::::::;;",
"   ;;;;;;;;;;;;;;;;;;;;::::::::::::::::::::::::::::::::::::::2;;",
"    ;;;;;;;;;;;;;;;;;;;::::::::::::::::::::::::::::::::::::::;;;",
"    ;;;;;;;;;;;;;;;;;;;:::::::::::::::::::::::::::::::::::::3;;;",
"     ;;;;;;;;;;;;;;;;;;:::::::::::::::::::::::::::::::::::::;;;;",
"     ;;;;;;;;;;;;;;;;;;::::::::::::::::::::::::::::::::::::1;;;;",
"      ;;;;;;;;;;;;;;;;;::::::::::::::::::::::::::::::::::::;;;;;",
"      ;;;;;;;;;;;;;;;;;:::::::::::::::::::::::::::::::::::;;;;;;",
"       ;;;;;;;;;;;;;;;;::::::::::::::::::::::::::::::::::0;;;;;;",
"        ;;;;;;;;;;;;;;;::::::::::::::::::::::::::::::::::;;;;;;;",
"         ;;;;;;;;;;;;;;:::::::::::::::::::::::::::::::::;;;;;;;;",
";;;;;;;;;;:::::::::::::::::::::::::::::::::::::::::::::;;;;;;;;;",
";;;;;;;;;;;:::::::::::::::::::::::::::::::::::::::::::;;;;;;;;;;",
";;;;;;;;;;;;:::::::::::::::::::::::::::::::::::::::::;;;;;;;;;;;",
";;;;;;;;;;;;;::::::::::::::::::::::::::::::::::::::0;;;;;;;;;;;;",
";;;;;;;;;;;;;;9:::::::::::::::::::::::::::::::::::;;;;;;;;;;;;;;",
";;;;;;;;;;;;;;;;::::::::::::::::::::::::::::::::1;;;;;;;;;;;;;;;",
";;;;;;;;;;;;;;;;;;::::::::::::::::::::::::::::3;;;;;;;;;;;;;;;;;",
";;;;;;;;;;;;;;;;;;;;::::::::::::::::::::::::2;;;;;;;;;;;;;;;;;;;",
";;;;;;;;;;;;;;;;;;;;;;8::::::::::::::::::3;;;;;;;;;;;;;;;;;;;;;;",
";;;;;;;;;;;;;;;;;;;;;;;;;;76:::::::::54;;;;;;;;;;;;;;;;;;;;;;;;;"};
